X:1
T:In the Shade of the Old Apple Tree
C:Egbert Van Alstyne
M:3/4
L:1/4
Q:3/4=120
K:G
|: d2 B | B2 G | A2 B | A3 | G2 B | d2 B | c2 A | B3 |
d2 B | B2 G | A2 B | c2 d | B2 A | G2 A | G3 | G3 |]
